svg/free/filter.svg

<svg version="1.1" xmlns="http://www.w3.org/2000/svg" width="24" height="24" viewBox="0 0 24 24">
<title>filter</title>
<path d="M11.186 23.25h-2.186v-11.352l-7.875-9.375v-1.773h21.375v1.763l-7.5 9.375v7.548zM10.5 21.75h0.064l2.936-2.936v-7.452l7.29-9.112h-17.935l7.646 9.102z"></path>
</svg>

<svg xmlns="http://www.w3.org/2000/svg" width="24" height="24" viewBox="0 0 24 24"><path d="M11.186 23.25H9V11.898L1.125 2.523V.75H22.5v1.763L15 11.888v7.548zm-.686-1.5h.064l2.936-2.936v-7.452l7.29-9.112H2.855l7.646 9.102z"/></svg>
